svg/300/outlined/description.svg

<svg xmlns="http://www.w3.org/2000/svg" width="48" height="48" viewBox="0 -960 960 960"><path d="M329.385-257.308h301.23v-45.384h-301.23v45.384Zm0-167.308h301.23v-45.383h-301.23v45.383Zm-91.691 324.615q-23.529 0-40.611-17.082-17.082-17.082-17.082-40.611v-644.612q0-23.529 17.082-40.611 17.082-17.082 40.611-17.082h347.537l194.768 194.768v507.537q0 23.529-17.082 40.611-17.082 17.082-40.611 17.082H237.694ZM562.539-644.77v-169.845H237.694q-4.616 0-8.463 3.846-3.846 3.847-3.846 8.463v644.612q0 4.616 3.846 8.463 3.847 3.846 8.463 3.846h484.612q4.616 0 8.463-3.846 3.846-3.847 3.846-8.463V-644.77H562.539ZM225.385-814.615v169.845-169.845 669.23-669.23Z"/></svg>

<svg xmlns="http://www.w3.org/2000/svg" width="48" height="48" viewBox="0 -960 960 960"><path d="M329.39-257.31h301.22v-45.38H329.39v45.38Zm0-167.31h301.22V-470H329.39v45.38ZM237.69-100q-23.53 0-40.61-17.08T180-157.69v-644.62q0-23.53 17.08-40.61T237.69-860h347.54L780-665.23v507.54q0 23.53-17.08 40.61T722.31-100H237.69Zm324.85-544.77v-169.84H237.69q-4.61 0-8.46 3.84-3.84 3.85-3.84 8.46v644.62q0 4.61 3.84 8.46 3.85 3.84 8.46 3.84h484.62q4.61 0 8.46-3.84 3.84-3.85 3.84-8.46v-487.08H562.54ZM225.39-814.61v169.84-169.84 669.22-669.22Z"/></svg>
